!!!OTL: Beim Ritt auf dem Knie.
!!!OTL-incipit: ULL MANN WULL RIDEN
!!!ARE: Europa, Mitteleuropa, Deutschland, Nord - Deutschland
!!!SCT: Z1375
!!!YEM: Copyright 1995, estate of Helmut Schaffrath.
**kern	**text
*ICvox	*
*M3/4	*
*k[b-e-a-]	*
*c:	*
=1	=1
!LO:TX:a:t=Aus der Mark wie in ganʒ Norddeutſchland.	!
{4cc	Ull
4cc	Mann
4dd	wull
=2	=2
4b	ri-
8ccqq	.
8b\L	-den,
8aJ	.
8bL	wull
8gJ}	.
=3	=3
{4cc	hat
4cc	he
4dd	ken
=4	=4
2ee-	Pärd,
4r}	.
=5	=5
{4ee-	ull
4ee-	Frau
4ee-	nohm
=6	=6
4.dd	Ʒik-
8dd	-ken-
4dd}	-buck,
=7	=7
{4ddqq	.
4cc	ſett
4cc	den
4cc	ull
=8	=8
4.b	Mann
8b	dar-
4b}	-upp,
=9	=9
{4cc	leht
4cc	ihm
4ee-	ſu
=10	=10
(2dd	ri-
4b)	.
=11	=11
2cc	-den!
4r}	.
==	==
!!!AGN: Kinder - Lied
!!!ONB: ESAC (Essen Associative Code) Database: ZUCCAL
!!!AMT: simple triple
!!!AIN: vox
!!!EED: Helmut Schaffrath
!!!EEV: 1.0
!!!GTL: IX. Kinder- Lieder.
!!!URL-scan: https://www.digitale-sammlungen.de/de/view/bsb11160573?page=682
!!!ENC: Anna Maria Matuszewska
!!!EEV: 2025/02/07
*-	*-
